%% Do not edit, this file has been generated
%% automatically by report.tex via gmp.sty

prologues:=3;

input metauml;
outputtemplate:= "%j.mps";
beginfig(1);
 DURefreshThread] Class.A("Point") ("+x: int", "+y: int") ();
 drawObjects(A, B);
 
endfig;
end.
